Newaita-dark/.DP/scalable/battery-good.svg

<?xml version="1.0" encoding="UTF-8"?>
<svg xmlns="http://www.w3.org/2000/svg" xmlns:xlink="http://www.w3.org/1999/xlink" width="512pt" height="512pt" viewBox="0 0 512 512" version="1.1">
<g id="surface1">
<path style=" stroke:none;fill-rule:nonzero;fill:rgb(74.117649%,74.117649%,74.117649%);fill-opacity:1;" d="M 63.507812 99.257812 C 45.914062 99.257812 31.753906 113.421875 31.753906 131.011719 L 31.753906 385.035156 C 31.753906 402.628906 45.914062 416.789062 63.507812 416.789062 L 423.375 416.789062 C 440.964844 416.789062 455.125 402.628906 455.125 385.035156 L 455.125 332.113281 L 465.710938 332.113281 C 477.4375 332.113281 486.878906 322.671875 486.878906 310.945312 L 486.878906 205.101562 C 486.878906 193.375 477.4375 183.933594 465.710938 183.933594 L 455.125 183.933594 L 455.125 131.011719 C 455.125 113.421875 440.964844 99.257812 423.375 99.257812 Z M 84.675781 131.011719 L 402.203125 131.011719 C 413.933594 131.011719 423.375 140.453125 423.375 152.179688 L 423.375 363.867188 C 423.375 375.59375 413.933594 385.035156 402.203125 385.035156 L 84.675781 385.035156 C 72.949219 385.035156 63.507812 375.59375 63.507812 363.867188 L 63.507812 152.179688 C 63.507812 140.453125 72.949219 131.011719 84.675781 131.011719 Z M 84.675781 131.011719 "/>
<path style=" stroke:none;fill-rule:nonzero;fill:rgb(74.117649%,74.117649%,74.117649%);fill-opacity:1;" d="M 105.84375 162.765625 L 127.011719 162.765625 C 132.859375 162.765625 137.597656 167.03125 137.597656 172.292969 L 137.597656 343.757812 C 137.597656 349.019531 132.859375 353.285156 127.011719 353.285156 L 105.84375 353.285156 C 99.996094 353.285156 95.257812 349.019531 95.257812 343.757812 L 95.257812 172.292969 C 95.257812 167.03125 99.996094 162.765625 105.84375 162.765625 Z M 105.84375 162.765625 "/>
<path style=" stroke:none;fill-rule:nonzero;fill:rgb(74.117649%,74.117649%,74.117649%);fill-opacity:1;" d="M 190.519531 162.765625 L 211.6875 162.765625 C 217.53125 162.765625 222.269531 167.03125 222.269531 172.292969 L 222.269531 343.757812 C 222.269531 349.019531 217.53125 353.285156 211.6875 353.285156 L 190.519531 353.285156 C 184.671875 353.285156 179.933594 349.019531 179.933594 343.757812 L 179.933594 172.292969 C 179.933594 167.03125 184.671875 162.765625 190.519531 162.765625 Z M 190.519531 162.765625 "/>
<path style=" stroke:none;fill-rule:nonzero;fill:rgb(74.117649%,74.117649%,74.117649%);fill-opacity:1;" d="M 275.191406 162.765625 L 296.363281 162.765625 C 302.207031 162.765625 306.945312 167.03125 306.945312 172.292969 L 306.945312 343.757812 C 306.945312 349.019531 302.207031 353.285156 296.363281 353.285156 L 275.191406 353.285156 C 269.347656 353.285156 264.609375 349.019531 264.609375 343.757812 L 264.609375 172.292969 C 264.609375 167.03125 269.347656 162.765625 275.191406 162.765625 Z M 275.191406 162.765625 "/>
<path style=" stroke:none;fill-rule:nonzero;fill:rgb(74.117649%,74.117649%,74.117649%);fill-opacity:0.392157;" d="M 359.867188 162.765625 L 381.035156 162.765625 C 386.882812 162.765625 391.621094 167.03125 391.621094 172.292969 L 391.621094 343.757812 C 391.621094 349.019531 386.882812 353.285156 381.035156 353.285156 L 359.867188 353.285156 C 354.023438 353.285156 349.285156 349.019531 349.285156 343.757812 L 349.285156 172.292969 C 349.285156 167.03125 354.023438 162.765625 359.867188 162.765625 Z M 359.867188 162.765625 "/>
</g>
</svg>

<svg xmlns="http://www.w3.org/2000/svg" width="512pt" height="512pt" viewBox="0 0 512 512"><g fill="#bdbdbd"><path d="M63.508 99.258c-17.594 0-31.754 14.164-31.754 31.754v254.023a31.682 31.682 0 0 0 31.754 31.754h359.867c17.59 0 31.75-14.16 31.75-31.754v-52.922h10.586a21.122 21.122 0 0 0 21.168-21.168V205.102a21.122 21.122 0 0 0-21.168-21.168h-10.586v-52.922c0-17.59-14.16-31.754-31.75-31.754zm21.168 31.754h317.527a21.123 21.123 0 0 1 21.172 21.168v211.687a21.123 21.123 0 0 1-21.172 21.168H84.676a21.122 21.122 0 0 1-21.168-21.168V152.18a21.122 21.122 0 0 1 21.168-21.168zm0 0"/><path d="M105.844 162.766h21.168c5.847 0 10.586 4.265 10.586 9.527v171.465c0 5.262-4.739 9.527-10.586 9.527h-21.168c-5.848 0-10.586-4.265-10.586-9.527V172.293c0-5.262 4.738-9.527 10.586-9.527zm0 0M190.52 162.766h21.167c5.844 0 10.583 4.265 10.583 9.527v171.465c0 5.262-4.739 9.527-10.583 9.527H190.52c-5.848 0-10.586-4.265-10.586-9.527V172.293c0-5.262 4.738-9.527 10.586-9.527zm0 0M275.191 162.766h21.172c5.844 0 10.582 4.265 10.582 9.527v171.465c0 5.262-4.738 9.527-10.582 9.527h-21.172c-5.843 0-10.582-4.265-10.582-9.527V172.293c0-5.262 4.739-9.527 10.582-9.527zm0 0"/><path d="M359.867 162.766h21.168c5.848 0 10.586 4.265 10.586 9.527v171.465c0 5.262-4.738 9.527-10.586 9.527h-21.168c-5.844 0-10.582-4.265-10.582-9.527V172.293c0-5.262 4.738-9.527 10.582-9.527zm0 0" fill-opacity=".392"/></g></svg>
